src/assets/logo/samsung.svg

<?xml version="1.0" encoding="UTF-8" standalone="no"?><!DOCTYPE svg PUBLIC "-//W3C//DTD SVG 1.1//EN" "http://www.w3.org/Graphics/SVG/1.1/DTD/svg11.dtd"><svg width="100%" height="100%" viewBox="0 0 540 200" version="1.1" xmlns="http://www.w3.org/2000/svg" xmlns:xlink="http://www.w3.org/1999/xlink" xml:space="preserve" xmlns:serif="http://www.serif.com/" style="fill-rule:evenodd;clip-rule:evenodd;stroke-linejoin:round;stroke-miterlimit:1.41421;"><g id="samsung"><path d="M510.703,58.099c-6.555,-37.629 -119.541,-49.388 -252.578,-26.217c-49.779,8.222 -98.548,21.689 -145.492,40.174c4.786,-0.316 9.517,1.201 13.226,4.241c2.202,2.335 3.359,5.47 3.201,8.675l0,3.856l-13.034,0l0,-3.316c0.009,-0.11 0.013,-0.221 0.013,-0.332c0,-2.263 -1.862,-4.125 -4.126,-4.125c-0.146,0 -0.292,0.008 -0.437,0.023c-0.204,-0.033 -0.409,-0.049 -0.615,-0.049c-1.917,0 -3.557,1.428 -3.82,3.326c-0.179,0.852 -0.179,1.732 0,2.583c1.388,5.707 20.746,9.254 22.867,19.779c0.473,2.782 0.473,5.623 0,8.405c-1.195,8.482 -8.676,11.759 -18.162,11.759c-13.265,0 -18.625,-6.284 -18.625,-14.92l0,-4.241l13.959,0l0,5.089c-0.001,0.024 -0.001,0.048 -0.001,0.072c0,2.411 1.985,4.395 4.396,4.395c0.181,0 0.361,-0.011 0.541,-0.033c2.217,0.334 4.34,-1.126 4.82,-3.316c0.354,-1.195 0.354,-2.468 0,-3.663c-2.584,-6.477 -20.669,-9.523 -22.906,-20.01c-0.456,-2.278 -0.456,-4.623 0,-6.901c0.211,-1.257 0.6,-2.478 1.157,-3.624c-43.69,20.28 -69.179,42.834 -65.786,62.189c6.556,37.629 119.541,49.35 252.578,26.217c58.421,-10.179 110.98,-25.408 150.968,-42.41l-1.735,0c-9.1,0 -17.237,-3.393 -18.085,-12.723c0,-1.697 0,-2.391 0,-3.355l0,-21.205c0,-0.925 0,-2.545 0.193,-3.393c1.079,-8.983 8.175,-12.684 18.046,-12.684c7.713,0 16.968,2.197 18.009,12.684c0.055,1.066 0.055,2.134 0,3.2l0,2.005l-13.188,0l0,-3.007c0.048,-0.629 0.048,-1.26 0,-1.889c-0.446,-2.272 -2.6,-3.832 -4.898,-3.547c-2.284,-0.229 -4.403,1.305 -4.897,3.547c-0.146,0.775 -0.211,1.563 -0.193,2.352l0,23.132c-0.056,0.629 -0.056,1.261 0,1.89c0.754,2.114 2.768,3.535 5.013,3.535c2.245,0 4.26,-1.421 5.013,-3.535c0.054,-0.629 0.054,-1.261 0,-1.89l0,-7.171l-5.167,0l0,-7.711l18.355,0l0,13.803c0.058,1.117 0.058,2.237 0,3.354c-0.172,2.251 -0.93,4.417 -2.198,6.285c42.225,-20.203 66.904,-42.256 63.588,-61.303Zm-344.701,66.7l-6.671,-45.34l-0.232,0l-6.709,45.34l-14.191,0l9.448,-51.162l22.944,0l9.409,51.162l-13.998,0Zm67.598,0l-0.231,-44.453l-0.232,0l-8.329,44.453l-13.188,0l-8.252,-44.453l-0.231,0l-0.309,44.415l-13.072,0l1.195,-51.124l21.016,0l5.977,37.938l0.309,0l6.131,-38.015l21.016,0l1.118,51.162l-12.918,0.077Zm61.699,-9.908c-1.389,9.908 -11.106,11.566 -17.97,11.566c-11.569,0 -18.433,-4.858 -18.433,-14.766l0,-3.971l13.805,0l0,5.012c0,0.024 0,0.048 0,0.072c0,2.39 1.967,4.357 4.357,4.357c0.181,0 0.362,-0.012 0.541,-0.034c2.171,0.316 4.247,-1.102 4.743,-3.239c0.345,-1.183 0.345,-2.441 0,-3.624c-2.699,-6.4 -20.708,-9.484 -22.867,-19.817c-0.455,-2.252 -0.455,-4.572 0,-6.824c1.504,-9.369 10.489,-11.297 17.738,-11.297c5.035,-0.49 10.066,1.021 13.998,4.203c2.192,2.307 3.336,5.42 3.162,8.597l0,3.856l-13.034,0l0,-3.239c0.009,-0.11 0.014,-0.221 0.014,-0.332c0,-2.242 -1.845,-4.086 -4.088,-4.086c-0.146,0 -0.292,0.007 -0.437,0.023c-0.205,-0.033 -0.413,-0.05 -0.621,-0.05c-1.902,0 -3.534,1.407 -3.814,3.289c-0.18,0.851 -0.18,1.731 0,2.583c1.427,5.513 20.63,8.983 22.674,19.393c0.465,2.756 0.465,5.571 0,8.328l0.232,0Zm47.816,-4.665c0,0.963 0,2.891 0,3.354c-0.771,8.443 -6.826,12.723 -17.893,12.723c-11.067,0 -17.121,-4.28 -17.931,-12.723c0,-0.501 0,-2.391 0,-3.354l0,-36.628l12.841,0l0,37.977c-0.061,0.628 -0.061,1.261 0,1.889c0.581,2.122 2.524,3.605 4.724,3.605c2.2,0 4.143,-1.483 4.724,-3.605c0.05,-0.641 0.05,-1.286 0,-1.928l0,-37.783l13.149,0l0.386,36.473Zm56.917,14.034l-18.51,0l-12.34,-40.522l-0.192,0l0.694,40.522l-12.918,0l0,-50.623l19.28,0l11.569,38.94l-0.694,-38.94l12.918,0l0.193,50.623Z" style="fill:#a0a0a0;fill-rule:nonzero;"/></g></svg>

<?xml version="1.0" encoding="UTF-8" standalone="no"?>
<!DOCTYPE svg PUBLIC "-//W3C//DTD SVG 1.1//EN" "http://www.w3.org/Graphics/SVG/1.1/DTD/svg11.dtd">
<svg width="100%" height="100%" viewBox="0 0 540 200" version="1.1" xmlns="http://www.w3.org/2000/svg" xmlns:xlink="http://www.w3.org/1999/xlink" xml:space="preserve" xmlns:serif="http://www.serif.com/" style="fill-rule:evenodd;clip-rule:evenodd;stroke-linejoin:round;stroke-miterlimit:2;">
    <g id="samsung">
        <path d="M510.703,58.099C504.148,20.47 391.162,8.711 258.125,31.882C208.346,40.104 159.577,53.571 112.633,72.056C117.419,71.74 122.15,73.257 125.859,76.297C128.061,78.632 129.218,81.767 129.06,84.972L129.06,88.828L116.026,88.828L116.026,85.512C116.035,85.402 116.039,85.291 116.039,85.18C116.039,82.917 114.177,81.055 111.913,81.055C111.767,81.055 111.621,81.063 111.476,81.078C111.272,81.045 111.067,81.029 110.861,81.029C108.944,81.029 107.304,82.457 107.041,84.355C106.862,85.207 106.862,86.087 107.041,86.938C108.429,92.645 127.787,96.192 129.908,106.717C130.381,109.499 130.381,112.34 129.908,115.122C128.713,123.604 121.232,126.881 111.746,126.881C98.481,126.881 93.121,120.597 93.121,111.961L93.121,107.72L107.08,107.72L107.08,112.809C107.079,112.833 107.079,112.857 107.079,112.881C107.079,115.292 109.064,117.276 111.475,117.276C111.656,117.276 111.836,117.265 112.016,117.243C114.233,117.577 116.356,116.117 116.836,113.927C117.19,112.732 117.19,111.459 116.836,110.264C114.252,103.787 96.167,100.741 93.93,90.254C93.474,87.976 93.474,85.631 93.93,83.353C94.141,82.096 94.53,80.875 95.087,79.729C51.397,100.009 25.908,122.563 29.301,141.918C35.857,179.547 148.842,191.268 281.879,168.135C340.3,157.956 392.859,142.727 432.847,125.725L431.112,125.725C422.012,125.725 413.875,122.332 413.027,113.002L413.027,88.442C413.027,87.517 413.027,85.897 413.22,85.049C414.299,76.066 421.395,72.365 431.266,72.365C438.979,72.365 448.234,74.562 449.275,85.049C449.33,86.115 449.33,87.183 449.275,88.249L449.275,90.254L436.087,90.254L436.087,87.247C436.135,86.618 436.135,85.987 436.087,85.358C435.641,83.086 433.487,81.526 431.189,81.811C428.905,81.582 426.786,83.116 426.292,85.358C426.146,86.133 426.081,86.921 426.099,87.71L426.099,110.842C426.043,111.471 426.043,112.103 426.099,112.732C426.853,114.846 428.867,116.267 431.112,116.267C433.357,116.267 435.372,114.846 436.125,112.732C436.179,112.103 436.179,111.471 436.125,110.842L436.125,103.671L430.958,103.671L430.958,95.96L449.313,95.96L449.313,109.763C449.371,110.88 449.371,112 449.313,113.117C449.141,115.368 448.383,117.534 447.115,119.402C489.34,99.199 514.019,77.146 510.703,58.099ZM166.002,124.799L159.331,79.459L159.099,79.459L152.39,124.799L138.199,124.799L147.647,73.637L170.591,73.637L180,124.799L166.002,124.799ZM233.6,124.799L233.369,80.346L233.137,80.346L224.808,124.799L211.62,124.799L203.368,80.346L203.137,80.346L202.828,124.761L189.756,124.761L190.951,73.637L211.967,73.637L217.944,111.575L218.253,111.575L224.384,73.56L245.4,73.56L246.518,124.722L233.6,124.799ZM295.299,114.891C293.91,124.799 284.193,126.457 277.329,126.457C265.76,126.457 258.896,121.599 258.896,111.691L258.896,107.72L272.701,107.72L272.701,112.804C272.701,115.194 274.668,117.161 277.058,117.161C277.239,117.161 277.42,117.149 277.599,117.127C279.77,117.443 281.846,116.025 282.342,113.888C282.687,112.705 282.687,111.447 282.342,110.264C279.643,103.864 261.634,100.78 259.475,90.447C259.02,88.195 259.02,85.875 259.475,83.623C260.979,74.254 269.964,72.326 277.213,72.326C282.248,71.836 287.279,73.347 291.211,76.529C293.403,78.836 294.547,81.949 294.373,85.126L294.373,88.982L281.339,88.982L281.339,85.743C281.348,85.633 281.353,85.522 281.353,85.411C281.353,83.169 279.508,81.325 277.265,81.325C277.119,81.325 276.973,81.332 276.828,81.348C276.623,81.315 276.415,81.298 276.207,81.298C274.305,81.298 272.673,82.705 272.393,84.587C272.213,85.438 272.213,86.318 272.393,87.17C273.82,92.683 293.023,96.153 295.067,106.563C295.532,109.319 295.532,112.134 295.067,114.891L295.299,114.891ZM343.115,110.226L343.115,113.58C342.344,122.023 336.289,126.303 325.222,126.303C314.155,126.303 308.101,122.023 307.291,113.58L307.291,73.598L320.132,73.598L320.132,111.575C320.071,112.203 320.071,112.836 320.132,113.464C320.713,115.586 322.656,117.069 324.856,117.069C327.056,117.069 328.999,115.586 329.58,113.464C329.63,112.823 329.63,112.178 329.58,111.536L329.58,73.753L342.729,73.753L343.115,110.226ZM400.032,124.26L381.522,124.26L369.182,83.738L368.99,83.738L369.684,124.26L356.766,124.26L356.766,73.637L376.046,73.637L387.615,112.577L386.921,73.637L399.839,73.637L400.032,124.26Z" style="fill:rgb(208,208,208);fill-rule:nonzero;"/>
    </g>
</svg>
